X:60200
T:Bad Boys of Dunkirk
G:Swung hornpipes
M:12/8
C: Trad
r: 32
R: Rag Morris
W: Morris formula: Unknown, AB a number of times probably.
Z: Michael Greene 
Q:400
K:Em
P:A
|:"Em"B3E3 E2FG3|"D"F2ED2E F2G AGA|"Em"B3E3 E2FG3|"D"F2ED2E "B7"F6|
"Em"B3E3 E2FG3|"D"F2ED2E F2G A3|"G"G3G3 "D"A3A2c|1"B7"B2AG2F "Em"E2F"B7"G2A:|2"B7"B2AG2F "Em"E6||
P:B
|:"G"D3G3 G2AB3|"Am"A2GF2G "D"A2B cBA|"G"D3G3 G2AB3|"Am"A2GF2G "D7"A6
|"G"D3G3 G2AB2d|"Am"c2BA2B "D"c2de2f|"G"g2dB2d "C"c2ed2c|"G"B2G"D7"A2F "G"G6:|
